X:1
T:Game of Thrones
T:Ramin Djiwadi Arr. Kendrick Quah
%%score 1 2 3 4
L:1/8
Q:1/4=80
M:6/8
K:Eb
V:1 bass nm="Trombone" snm="Trb."
V:2 bass nm="Trombone" snm="Trb."
V:3 bass nm="Trombone" snm="Trb."
V:4 bass nm="Bass Trombone" snm="B. Trb."
V:1
 !>!G,C,E,/F,/ !>!G,C,E,/F,/ | !>!G,C,E,/F,/ !>!G,C,E,/F,/ | !>!G,C,=E,/F,/ !>!G,C,E,/F,/ | %3
 !>!G,C,=E,/F,/ !>!G,C,E,/F,/ | G,3 C,3 | E,/F,/ G,2 C,2 E,/F,/ | D,6- | D,6 | F,3 B,,3 | %9
 E,/D,/ F,2 B,,3 | E,/D,/ C,4- C,- | C,6 | G,3 C,3 | E,/F,/ G,2 C,2 E,/F,/ | D,6- | D,6 | %16
 F,3 B,,3 | E,/D,/ F,2 B,,3 | E,/D,/ C,4- C,- | C,6 | G3 C3 | E/F/ G2 C2 E/F/ | D6- | D6 | F3 B,3 | %25
 (2:3:2DE (2:3:2DB, | C6- | C6 | C6 | B,6 | C,6 | G,6 | A,,6 | E,3 F,3 | G,6- | G,6 | C6 | B,6 | %38
 C,6 | G,6 | A,6 | E3 D3 | C6- | C6 | z6 | z6 |] %46
V:2
 z6 | z6 | C,6- | C,6 | C,6- | C,6 | !>!D,G,,B,,/C,/ !>!D,G,,B,,/C,/ | %7
 !>!D,G,,B,,/C,/ !>!D,G,,B,,/C,/ | F,6- | F,6 | !>!C,F,,A,,/B,,/ !>!C,F,,A,,/B,,/ | %11
 !>!C,F,,A,,/B,,/ !>!C,F,,A,,/B,,/ | C,6- | C,6 | !>!D,G,,B,,/C,/ !>!D,G,,B,,/C,/ | %15
 !>!D,G,,B,,/C,/ !>!D,G,,B,,/C,/ | F,6- | F,6 | !>!C,F,,A,,/B,,/ !>!C,F,,A,,/B,,/ | %19
 !>!C,F,,A,,/B,,/ !>!C,F,,A,,/B,,/ | !>!G,C,E,/F,/ !>!G,C,E,/F,/ | !>!G,C,E,/F,/ !>!G,C,E,/F,/ | %22
 !>!DG,B,/C/ !>!DG,B,/C/ | !>!DG,B,/C/ !>!DG,B,/C/ | !>!D,G,,B,,/C,/ !>!D,G,,B,,/C,/ | %25
 !>!D,G,,B,,/C,/ !>!D,G,,B,,/C,/ | !>!CG,A,/B,/ !>!CG,A,/B,/ | !>!CG,A,/B,/ !>!CG,A,/B,/ | %28
 !>!CE,A,/B,/ !>!CE,A,/C/ | !>!B,E,G,/A,/ !>!B,E,G,/B,/ | !>!A,C,F,/G,/ !>!A,C,F,/A,/ | %31
 !>!G,C,E,/F,/ !>!G,C,E,/F,/ | A,,6 | E,3 D,3 | C,6- | C,6 | !>!CE,A,/B,/ !>!CE,A,/C/ | %37
 !>!B,E,G,/A,/ !>!B,E,G,/B,/ | !>!A,C,F,/G,/ !>!A,C,F,/A,/ | !>!G,C,E,/F,/ !>!G,C,E,/F,/ | A,,6 | %41
 E,3 D,3 | C,6- | C,6 | !>!CG,A,/B,/ !>!CG,A,/B,/ | z6 |] %46
V:3
 !>!G,,G,,/G,,/G,,/G,,/ !>!G,,G,,/G,,/G,,/G,,/ | !>!G,,G,,/G,,/G,,/G,,/ !>!G,,G,,/G,,/G,,/G,,/ | %2
 !>!G,,G,,/G,,/G,,/G,,/ !>!G,,G,,/G,,/G,,/G,,/ | !>!G,,G,,/G,,/G,,/G,,/ !>!G,,G,,/G,,/G,,/G,,/ | %4
 !>!G,,G,,/G,,/G,,/G,,/ G,,G,,/G,,/G,,/G,,/ | !>!G,,G,,/G,,/G,,/G,,/ !>!G,,G,,/G,,/G,,/G,,/ | %6
 !>!G,,G,,/G,,/G,,/G,,/ !>!G,,G,,/G,,/G,,/G,,/ | !>!G,,G,,/G,,/G,,/G,,/ !^!G,,!^!G,,!^!G,, | %8
 B,,6- | B,,6 | G,,6- | G,,6 | !>!G,,G,,/G,,/G,,/G,,/ !>!G,,G,,/G,,/G,,/G,,/ | %13
 !>!G,,G,,/G,,/G,,/G,,/ !>!G,,G,,/G,,/G,,/G,,/ | !>!G,,G,,/G,,/G,,/G,,/ !>!G,,G,,/G,,/G,,/G,,/ | %15
 !>!G,,G,,/G,,/G,,/G,,/ !^!G,,!^!G,,!^!G,, | !>!B,,B,,/B,,/B,,/B,,/ !>!B,,B,,/B,,/B,,/B,,/ | %17
 !>!B,,B,,/B,,/B,,/B,,/ !>!B,,B,,/B,,/B,,/B,,/ | !>!G,,G,,/G,,/G,,/G,,/ !>!G,,G,,/G,,/G,,/G,,/ | %19
 !>!G,,G,,/G,,/G,,/G,,/ !^!G,,!^!G,,!^!G,, | G,3 C,3 | E,/F,/ G,2 C,2 E,/F,/ | D,6- | D,6 | %24
 F,3 B,,3 | (2:3:2D,E, (2:3:2D,B,, | C,6- | C,6 | A,6 | E,6 | F,,6 | C,6 | %32
 !>!E,A,,C,/D,/ !>!E,A,,C,/D,/ | !>!E,A,,C,/D,/ !>!D,G,,B,,/C,/ | %34
 !>!C,G,,A,,/B,,/ !>!C,G,,A,,/B,,/ | !>!C,G,,A,,/B,,/ !>!C,G,,A,,/B,,/ | A,6 | E,6 | F,6 | E,6 | %40
 !>!E,A,,C,/D,/ !>!E,A,,C,/D,/ | !>!E,A,,C,/D,/ !>!D,G,,B,,/C,/ | !>!CG,A,/B,/ !>!CG,A,/B,/ | %43
 !>!CG,A,/B,/ !>!CG,A,/B,/ | z6 | z6 |] %46
V:4
 G,,6- | G,,6 | G,,6- | G,,6 | G,,6- | G,,6 | G,,6- | G,,6 | %8
 !>!B,,B,,/B,,/B,,/B,,/ !>!B,,B,,/B,,/B,,/B,,/ | !>!B,,B,,/B,,/B,,/B,,/ !>!B,,B,,/B,,/B,,/B,,/ | %10
 !>!G,,G,,/G,,/G,,/G,,/ !>!G,,G,,/G,,/G,,/G,,/ | !>!G,,G,,/G,,/G,,/G,,/ !^!G,,!^!G,,!^!G,, | %12
 G,,3 C,,3 | E,,/F,,/ G,,2 C,,2 E,,/F,,/ | D,,6- | D,,6 | F,,3 B,,,3 | E,,/D,,/ F,,2 B,,,3 | %18
 E,,/D,,/ C,,4- C,,- | C,,6 | !>!G,,G,,/G,,/G,,/G,,/ !>!G,,G,,/G,,/G,,/G,,/ | %21
 !>!G,,G,,/G,,/G,,/G,,/ !>!G,,G,,/G,,/G,,/G,,/ | !>!G,,G,,/G,,/G,,/G,,/ !>!G,,G,,/G,,/G,,/G,,/ | %23
 !>!G,,G,,/G,,/G,,/G,,/ !^!G,,!^!G,,!^!G,, | !>!B,,B,,/B,,/B,,/B,,/ !>!B,,B,,/B,,/B,,/B,,/ | %25
 !>!B,,B,,/B,,/B,,/B,,/ !>!B,,B,,/B,,/B,,/B,,/ | !>!G,,G,,/G,,/G,,/G,,/ !>!G,,G,,/G,,/G,,/G,,/ | %27
 !>!G,,G,,/G,,/G,,/G,,/ !^!G,,!^!G,,!^!G,, | !>!E,,E,,/E,,/E,,/E,,/ !>!E,,E,,/E,,/E,,/E,,/ | %29
 !>!G,,G,,/G,,/G,,/G,,/ !^!G,,!^!G,,!^!G,, | !>!F,,F,,/F,,/F,,/F,,/ !>!F,,F,,/F,,/F,,/F,,/ | %31
 !>!G,,G,,/G,,/G,,/G,,/ !^!G,,!^!G,,!^!G,, | !>!A,,A,,/A,,/A,,/A,,/ !>!A,,A,,/A,,/A,,/A,,/ | %33
 !>!G,,G,,/G,,/G,,/G,,/ !^!F,,!^!F,,!^!F,, | !>!G,,G,,/G,,/G,,/G,,/ !>!G,,G,,/G,,/G,,/G,,/ | %35
 !>!G,,G,,/G,,/G,,/G,,/ !^!G,,!^!G,,!^!G,, | !>!E,,E,,/E,,/E,,/E,,/ !>!E,,E,,/E,,/E,,/E,,/ | %37
 !>!G,,G,,/G,,/G,,/G,,/ !^!G,,!^!G,,!^!G,, | !>!F,,F,,/F,,/F,,/F,,/ !>!F,,F,,/F,,/F,,/F,,/ | %39
 !>!G,,G,,/G,,/G,,/G,,/ !^!G,,!^!G,,!^!G,, | !>!A,,A,,/A,,/A,,/A,,/ !>!A,,A,,/A,,/A,,/A,,/ | %41
 !>!G,,G,,/G,,/G,,/G,,/ !^!F,,!^!F,,!^!F,, | !>!G,,G,,/G,,/G,,/G,,/ !>!G,,G,,/G,,/G,,/G,,/ | %43
 !>!G,,G,,/G,,/G,,/G,,/ !^!G,,!^!G,,!^!G,, | C,G,,A,,/B,,/ C,G,,A,,/B,,/ | C,G,,A,,/B,,/ C, z2 |] %46

